public/art/nature/mushroom.svg

<svg xmlns="http://www.w3.org/2000/svg" width="32" height="32" shape-rendering="crispEdges" viewBox="0 -0.5 16 16"><path stroke="#ff0009" d="M6 5h3M5 6h3m1 0h1M4 7h1m1 0h5M5 8h5M7 9h2"/><path stroke="#fff" d="M8 6h1M5 7h1m0 2h1m-1 2h3m-2 1h1"/><path stroke="#b20006" d="M4 8h1m5 0h1M5 9h1m3 0h1m-4 1h3"/><path stroke="#8ecc98" d="M5 10h1m3 0h1m-5 1h1m3 0h1m-4 1h1m1 0h1"/></svg>

<svg xmlns="http://www.w3.org/2000/svg" width="32" height="32" viewBox="0 -0.5 16 16" shape-rendering="crispEdges">
<path stroke="#ff0009" d="M6 5h3M5 6h3M9 6h1M4 7h1M6 7h5M5 8h5M7 9h2" />
<path stroke="#ffffff" d="M8 6h1M5 7h1M6 9h1M6 11h3M7 12h1" />
<path stroke="#b20006" d="M4 8h1M10 8h1M5 9h1M9 9h1M6 10h3" />
<path stroke="#8ecc98" d="M5 10h1M9 10h1M5 11h1M9 11h1M6 12h1M8 12h1" />
</svg>
